!!!COM:	Bach, Johann Sebastian
!!!CDT:	1685/02/21/-1750/07/28/
!!!OTL@@DE:	Herr, wie du willt, so schick's mit mir
!!!SCT:	BWV 156/6
!!!PC#:	317
!!!AGN:	chorale
**kern	**kern	**kern	**kern
*ICvox	*ICvox	*ICvox	*ICvox
*Ibass	*Itenor	*Ialto	*Isoprn
*I"Bass	*I"Tenor	*I"Alto	*I"Soprano
*>[A,A,B]	*>[A,A,B]	*>[A,A,B]	*>[A,A,B]
*>norep[A,B]	*>norep[A,B]	*>norep[A,B]	*>norep[A,B]
*>A	*>A	*>A	*>A
*clefF4	*clefGv2	*clefG2	*clefG2
*k[]	*k[]	*k[]	*k[]
*C:	*C:	*C:	*C:
*M4/4	*M4/4	*M4/4	*M4/4
*met(c)	*met(c)	*met(c)	*met(c)
*MM100	*MM100	*MM100	*MM100
4C	4e	4g	4cc
=1	=1	=1	=1
4G	4d	4.g	4b
4A	4c	.	4cc
.	.	8f#	.
8GL	4B	4g	4dd
8FnXJ	.	.	.
4E	4B	4g#	4dd
=2	=2	=2	=2
4A	8cL	8eL	4cc
.	8fJ	8cJ	.
4G	4B	4gnX	4dd
4c;	4c;	4g;	4ee;
4B	4d	4g	4ff
=3	=3	=3	=3
4c	4c	4g	4ee
4G	4B	8gL	4dd
.	.	8fJ	.
8AL	8cL	4e	4cc
8GJ	8eJ	.	.
[4F	4d	8fL	8bL
.	.	8eJ	8aJ
=4	=4	=4	=4
4F]	4g	4d	4b
4E	2c	4g	4cc
4F#	.	4a	2dd
4G	4B	8gL	.
.	.	8fnXJ	.
=5	=5	=5	=5
2.C;	2.G;	2.e;	2.cc;
=:|!	=:|!	=:|!	=:|!
*>B	*>B	*>B	*>B
4c	4e	4g	4cc
=6	=6	=6	=6
4B	4d	4g	8ddL
.	.	.	8eeJ
4A	4c	4a	4ff
4G#	4B	4b	8eeL
.	.	.	8ddJ
8AL	4e	4a	4cc
8GJ	.	.	.
=7	=7	=7	=7
4F#	4d	4.a	8ddL
.	.	.	8ccJ
4G	4d	.	4b
.	.	8g	.
4D;	4d;	4f#;	4a;
4D#	4B	4f#	4b
=8	=8	=8	=8
8EL	4B	4e	4g
8F#J	.	.	.
8GL	8BL	8eL	4g
8AJ	8cJ	8f#J	.
4B	4dnX	4g	4dd
4c#	4A	4e	4ee
=9	=9	=9	=9
4d	4A	4d	8ffL
.	.	.	8eeJ
4G#	4B	4e	4dd
4A;	4A;	4e;	4cc;
4B	4d	4gnX	4ggnX
=10	=10	=10	=10
8cL	4c	4g	4ee
8BJ	.	.	.
8AL	8cL	8fL	8ffL
8GJ	8BJ	8gJ	8eeJ
8FL	4A	8aL	4.dd
8DnXJ	.	8fJ	.
8EL	4e	8gL	.
8FJ	.	8aJ	8cc
=11	=11	=11	=11
8GL	4d	4g	4b
8FJ	.	.	.
8EL	4c	4g	4cc
8CJ	.	.	.
2GG	4c	4.g	2dd
.	4B	.	.
.	.	8f	.
=12	=12	=12	=12
2.C;	2.G;	2.e;	2.cc;
==	==	==	==
*-	*-	*-	*-
!!!hum2abc: -Q ''
!!!title: @{PC#}. @{OTL@@DE}
!!!YOR1: 371 vierstimmige Choralges&auml;nge von Johann Sebastian Bach, 
!!!YOR2: 4th ed. by Alfred D&ouml;rffel (Leipzig: Breitkopf und H&auml;rtel, 
!!!YOR2: c.1875). 178 pp. Plate "V.A.10".  reprint: J.S. Bach, 371 Four-Part 
!!!YOR4: Chorales (New York: Associated Music Publishers, Inc., c.1940).
!!!SMS: B&H, 4th ed, Alfred D&ouml;rffel, c.1875, plate V.A.10
!!!EED:  Craig Stuart Sapp
!!!EEV:  2009/05/22
